dist/assets/img/questions/1/backdrop.svg

<svg width="743" height="400" viewBox="0 0 743 400" fill="none" xmlns="http://www.w3.org/2000/svg">
<g filter="url(#filter0_di_1495_60986)">
<path fill-rule="evenodd" clip-rule="evenodd" d="M266.767 342.087C161.629 323.177 32.5814 272.035 40.3332 170.228C48.4399 63.7604 131.52 43.1131 239.599 32.3897C334.927 22.9314 427.948 28.6646 521.575 50.4928C577.876 63.6189 646 111.26 646 191.373C646 196.143 647.447 200.945 651.098 204.014C665.441 216.069 684.748 221.205 701.841 225.752C702.055 225.809 702.066 226.107 701.857 226.181C684.933 232.168 667.543 231.895 652.643 229.218C644.694 227.79 636.58 231.6 632.388 238.503C579.878 324.979 387.414 363.787 266.767 342.087Z" fill="white"/>
</g>
<defs>
<filter id="filter0_di_1495_60986" x="0" y="0" width="742.008" height="400" filterUnits="userSpaceOnUse" color-interpolation-filters="sRGB">
<feFlood flood-opacity="0" result="BackgroundImageFix"/>
<feColorMatrix in="SourceAlpha" type="matrix" values="0 0 0 0 0 0 0 0 0 0 0 0 0 0 0 0 0 0 127 0" result="hardAlpha"/>
<feOffset dy="12"/>
<feGaussianBlur stdDeviation="20"/>
<feComposite in2="hardAlpha" operator="out"/>
<feColorMatrix type="matrix" values="0 0 0 0 0.909804 0 0 0 0 0.313726 0 0 0 0 0.470588 0 0 0 1 0"/>
<feBlend mode="normal" in2="BackgroundImageFix" result="effect1_dropShadow_1495_60986"/>
<feBlend mode="normal" in="SourceGraphic" in2="effect1_dropShadow_1495_60986" result="shape"/>
<feColorMatrix in="SourceAlpha" type="matrix" values="0 0 0 0 0 0 0 0 0 0 0 0 0 0 0 0 0 0 127 0" result="hardAlpha"/>
<feOffset dy="-4"/>
<feGaussianBlur stdDeviation="4"/>
<feComposite in2="hardAlpha" operator="arithmetic" k2="-1" k3="1"/>
<feColorMatrix type="matrix" values="0 0 0 0 0.909804 0 0 0 0 0.313726 0 0 0 0 0.470588 0 0 0 0.48 0"/>
<feBlend mode="normal" in2="shape" result="effect2_innerShadow_1495_60986"/>
</filter>
</defs>
</svg>

<svg width="743" height="400" viewBox="0 0 743 400" fill="none" xmlns="http://www.w3.org/2000/svg"><g filter="url(#filter0_di_1495_60986)"><path fill-rule="evenodd" clip-rule="evenodd" d="M266.767 342.087c-105.138-18.91-234.186-70.052-226.434-171.859C48.44 63.76 131.52 43.113 239.6 32.39c95.328-9.459 188.349-3.725 281.976 18.103C577.876 63.619 646 111.26 646 191.373c0 4.77 1.447 9.572 5.098 12.641 14.343 12.055 33.65 17.191 50.743 21.738.214.057.225.355.016.429-16.924 5.987-34.314 5.714-49.214 3.037-7.949-1.428-16.063 2.382-20.255 9.285-52.51 86.476-244.974 125.284-365.621 103.584z" fill="#fff"/></g><defs><filter id="filter0_di_1495_60986" x="0" y="0" width="742.008" height="400" filterUnits="userSpaceOnUse" color-interpolation-filters="sRGB"><feFlood flood-opacity="0" result="BackgroundImageFix"/><feColorMatrix in="SourceAlpha" values="0 0 0 0 0 0 0 0 0 0 0 0 0 0 0 0 0 0 127 0" result="hardAlpha"/><feOffset dy="12"/><feGaussianBlur stdDeviation="20"/><feComposite in2="hardAlpha" operator="out"/><feColorMatrix values="0 0 0 0 0.909804 0 0 0 0 0.313726 0 0 0 0 0.470588 0 0 0 1 0"/><feBlend in2="BackgroundImageFix" result="effect1_dropShadow_1495_60986"/><feBlend in="SourceGraphic" in2="effect1_dropShadow_1495_60986" result="shape"/><feColorMatrix in="SourceAlpha" values="0 0 0 0 0 0 0 0 0 0 0 0 0 0 0 0 0 0 127 0" result="hardAlpha"/><feOffset dy="-4"/><feGaussianBlur stdDeviation="4"/><feComposite in2="hardAlpha" operator="arithmetic" k2="-1" k3="1"/><feColorMatrix values="0 0 0 0 0.909804 0 0 0 0 0.313726 0 0 0 0 0.470588 0 0 0 0.48 0"/><feBlend in2="shape" result="effect2_innerShadow_1495_60986"/></filter></defs></svg>
